packages/connectors/hull-customerio/assets/logo.svg

<svg height="257" viewBox="0 0 257 257" width="257" xmlns="http://www.w3.org/2000/svg"><g fill="none" fill-rule="evenodd"><path d="m0 0h257v257h-257z" fill="#2f326a"/><path d="m128.99985 137.714372c-19.21906 0-34.800661-15.606126-34.800661-34.857186 0-19.2510603 15.581601-34.857186 34.800661-34.857186s34.800661 15.6061257 34.800661 34.857186c0 19.25106-15.581601 34.857186-34.800661 34.857186zm-41.3126438-2.893835-24.7278129 24.767954c-13.0649658-15.244641-20.9593933-35.064479-20.9593933-56.731305h19.460556c8.4718853 0 15.1130264 7.023907 17.564031 15.14671 1.8592793 6.163144 4.8239135 11.845811 8.6626192 16.816641zm-15.3262879 34.185664 24.7278129-24.767953c8.8233158 6.83647 19.8933868 10.904566 31.9111188 10.904566s23.087802-4.068096 31.911118-10.904566l24.727813 24.768103c-15.219657 13.086262-35.007915 20.993649-56.638931 20.993649-21.631017 0-41.4177727-7.907387-56.6389317-20.993799zm97.9530767-34.185513c3.838706-4.970981 6.80334-10.653648 8.662619-16.816792 2.449503-8.122803 9.090644-15.14671 17.56253-15.14671h19.460856c0 21.666826-7.893677 41.486814-20.959694 56.731455z" fill="#fff" fill-rule="nonzero"/></g></svg>

<?xml version="1.0" encoding="UTF-8"?>
<svg width="257px" height="257px" viewBox="0 0 257 257" version="1.1" xmlns="http://www.w3.org/2000/svg" xmlns:xlink="http://www.w3.org/1999/xlink">
    <!-- Generator: Sketch 53 (72520) - https://sketchapp.com -->
    <title>customerio/logo</title>
    <desc>Created with Sketch.</desc>
    <g id="customerio/logo" stroke="none" stroke-width="1" fill="none" fill-rule="evenodd">
        <circle id="Mask" fill="#2F326A" cx="128.5" cy="128.5" r="125.5"></circle>
        <path d="M128.99985,137.714372 C109.78079,137.714372 94.199189,122.108246 94.199189,102.857186 C94.199189,83.6061257 109.78079,68 128.99985,68 C148.21891,68 163.800511,83.6061257 163.800511,102.857186 C163.800511,122.108246 148.21891,137.714372 128.99985,137.714372 Z M87.6872062,134.820537 L62.9593933,159.588491 C49.8944275,144.34385 42,124.524012 42,102.857186 L61.460556,102.857186 C69.9324413,102.857186 76.5735824,109.881093 79.024587,118.003896 C80.8838663,124.16704 83.8485005,129.849707 87.6872062,134.820537 Z M72.3609183,169.006201 L97.0887312,144.238248 C105.912047,151.074718 116.982118,155.142814 128.99985,155.142814 C141.017582,155.142814 152.087652,151.074718 160.910968,144.238398 L185.638781,169.006351 C170.419124,182.092613 150.630866,190 128.99985,190 C107.368833,190 87.5820773,182.092613 72.3609183,169.006201 Z M170.313995,134.820688 C174.152701,129.849707 177.117335,124.16704 178.976614,118.003896 C181.426117,109.881093 188.067258,102.857186 196.539144,102.857186 L216,102.857186 C216,124.524012 208.106323,144.344 195.040306,159.588641 L170.313995,134.820688 Z" id="Combined-Shape" fill="#FFFFFF" fill-rule="nonzero"></path>
    </g>
</svg>
